; generated by PrusaSlicer 2.4.2+linux-x64-GTK3 on 2022-08-26 at 02:16:13 UTC


;
;

;
;
; 

; external perimeters extrusion width = 0.45mm
; perimeters extrusion width = 0.45mm
; infill extrusion width = 0.45mm
; solid infill extrusion width = 0.45mm
; top infill extrusion width = 0.40mm
; first layer extrusion width = 0.42mm

M73 P0 R83
M201 X2500 Y2500 Z400 E5000 ; sets maximum accelerations, mm/sec^2
M203 X180 Y180 Z12 E80 ; sets maximum feedrates, mm / sec
M204 P1250 R1250 T2500 ; sets acceleration (P, T) and retract acceleration (R), mm/sec^2
M205 X8.00 Y8.00 Z2.00 E10.00 ; sets the jerk limits, mm/sec
M205 S0 T0 ; sets the minimum extruding and travel feed rate, mm/sec
M107
;TYPE:Custom
M862.3 P "MINI" ; printer model check
G90 ; use absolute coordinates
M83 ; extruder relative mode
M104 S170 ; set extruder temp for bed leveling
M140 S85 ; set bed temp
M109 R170 ; wait for bed leveling temp
M190 S85 ; wait for bed temp
M204 T1250 ; set travel acceleration
G28 ; home all without mesh bed level
G29 ; mesh bed leveling 
M204 T2500 ; restore travel acceleration
M104 S240 ; set extruder temp
G92 E0
G1 Y-2 X179 F2400
G1 Z3 F720
M109 S240 ; wait for extruder temp

; intro line
G1 X170 F1000
G1 Z0.2 F720
G1 X110 E8 F900
G1 X40 E10 F700
G92 E0

M221 S95 ; set flow
G21 ; set units to millimeters
G90 ; use absolute coordinates
M83 ; use relative distances for extrusion
M900 K0.2 ; Filament gcode
M107
;LAYER_CHANGE
;Z:0.2
;HEIGHT:0.2
;BEFORE_LAYER_CHANGE
G92 E0.0
;0.2


G1 E-3.2 F2700
G1 Z.2 F720
;AFTER_LAYER_CHANGE
;0.2
G1 Z.4
G1 X61.752 Y61.011 F9000
G1 Z.2 F720
G1 E3.2 F1500
M204 P800
;TYPE:Skirt/Brim
;WIDTH:0.42
G1 F1200
G1 X64.161 Y58.844 E.1016
G1 X65.488 Y57.789 E.05316
G1 X68.354 Y55.798 E.10941
G1 X71.292 Y54.106 E.10629
G1 X74.269 Y52.705 E.10317
G1 X75.844 Y52.079 E.05316
G1 X79.163 Y51.001 E.10941
G1 X82.514 Y50.223 E.10786
G1 X85.72 Y49.75 E.1016
G1 X87.409 Y49.606 E.05316
G1 X90.897 Y49.533 E.10941
G1 X94.28 Y49.75 E.10629
G1 X97.536 Y50.231 E.10317
G1 X99.194 Y50.582 E.05316
G1 X102.555 Y51.52 E.10941
G1 X105.731 Y52.705 E.10629
G1 X108.708 Y54.106 E.10317
G1 X110.195 Y54.921 E.05316
G1 X113.141 Y56.791 E.10941
G1 X115.877 Y58.877 E.10786
G1 X118.284 Y61.046 E.1016
G1 X119.472 Y62.256 E.05316
G1 X121.752 Y64.897 E.10941
G1 X122.775 Y66.249 E.05316
G1 X124.569 Y68.947 E.10159
G1 X126.233 Y71.958 E.10786
G1 X127.652 Y75.146 E.10941
G1 X128.241 Y76.736 E.05316
G1 X129.135 Y79.68 E.09647
G1 X129.901 Y83.201 E.11298
G1 X130.339 Y86.663 E.10941
G1 X130.477 Y89.95 E.10317
G1 X130.443 Y91.645 E.05316
G1 X130.164 Y95.024 E.10629
G1 X129.582 Y98.464 E.10941
G1 X128.763 Y101.651 E.10317
G1 X128.241 Y103.264 E.05316
G1 X126.957 Y106.509 E.10941
G1 X125.446 Y109.543 E.10629
G1 X124.596 Y111.011 E.05316
G1 X122.775 Y113.751 E.10317
G1 X120.608 Y116.486 E.10941
G1 X118.248 Y118.989 E.10786
G1 X115.839 Y121.156 E.1016
G1 X114.512 Y122.211 E.05316
G1 X111.646 Y124.202 E.10941
G1 X108.708 Y125.894 E.10629
G1 X105.731 Y127.295 E.10317
G1 X104.156 Y127.921 E.05316
G1 X100.837 Y128.999 E.10941
G1 X97.486 Y129.777 E.10786
G1 X94.28 Y130.25 E.1016
G1 X92.591 Y130.394 E.05316
G1 X89.103 Y130.467 E.10941
G1 X85.72 Y130.25 E.10629
G1 X82.464 Y129.769 E.10317
G1 X80.806 Y129.418 E.05316
G1 X77.445 Y128.48 E.10941
G1 X74.269 Y127.295 E.10629
G1 X71.292 Y125.894 E.10317
G1 X69.805 Y125.079 E.05316
G1 X66.859 Y123.209 E.10941
G1 X64.123 Y121.123 E.10786
G1 X61.716 Y118.954 E.1016
G1 X60.528 Y117.744 E.05316
G1 X58.248 Y115.103 E.10941
G1 X57.225 Y113.751 E.05316
G1 X55.431 Y111.053 E.10159
G1 X53.767 Y108.042 E.10786
G1 X52.348 Y104.854 E.10941
G1 X51.759 Y103.264 E.05316
G1 X50.807 Y100.114 E.10317
G1 X50.082 Y96.701 E.10941
G1 X49.836 Y95.024 E.05316
G1 X49.564 Y91.795 E.1016
G1 X49.557 Y88.355 E.10786
G1 X49.836 Y84.976 E.10629
G1 X50.418 Y81.536 E.10941
G1 X51.237 Y78.349 E.10317
G1 X51.759 Y76.736 E.05316
G1 X53.043 Y73.491 E.10941
G1 X54.554 Y70.457 E.10629
G1 X55.404 Y68.989 E.05316
G1 X57.225 Y66.249 E.10317
G1 X59.392 Y63.514 E.10941
G1 X61.711 Y61.055 E.10598
M204 P1000
; printing object power-wheels-motor-mount.stl id:0 copy 0
G1 E-2.24 F2700
;WIPE_START
G1 F7200
G1 X63.612 Y59.34 E-.912
;WIPE_END
G1 E-.048 F2700
G1 Z.4 F720
G1 X75.76 Y75.47 F9000
G1 Z.2 F720
G1 E3.2 F1500
M204 P800
;TYPE:Perimeter
G1 F1200
G1 X76.386 Y74.881 E.02697
G1 X77.022 Y74.332 E.02634
G1 X77.699 Y73.794 E.02709
G1 X78.389 Y73.294 E.02672
G1 X79.098 Y72.822 E.02672
G1 X79.827 Y72.381 E.02672
G1 X80.574 Y71.97 E.02672
G1 X81.337 Y71.591 E.02672
G1 X82.105 Y71.249 E.02634
G1 X82.908 Y70.931 E.02709
G1 X83.713 Y70.651 E.02672
G1 X84.529 Y70.404 E.02672
G1 X85.354 Y70.192 E.02672
G1 X86.188 Y70.015 E.02672
G1 X87.028 Y69.873 E.02672
G1 X87.862 Y69.768 E.02634
G1 X88.722 Y69.695 E.02709
G1 X89.574 Y69.659 E.02672
G1 X90.426 Y69.659 E.02672
G1 X91.277 Y69.695 E.02672
G1 X92.127 Y69.766 E.02672
G1 X92.972 Y69.873 E.02672
G1 X93.812 Y70.015 E.02672
G1 X94.646 Y70.192 E.02672
G1 X95.471 Y70.404 E.02672
G1 X96.287 Y70.651 E.02672
G1 X97.092 Y70.931 E.02672
G1 X97.884 Y71.244 E.02672
G1 X98.663 Y71.591 E.02672
G1 X99.426 Y71.97 E.02672
G1 X100.173 Y72.381 E.02672
G1 X100.902 Y72.822 E.02672
G1 X101.611 Y73.294 E.02672
G1 X102.301 Y73.794 E.02672
G1 X102.959 Y74.316 E.02634
G1 X103.614 Y74.88 E.02709
G1 X104.235 Y75.464 E.02672
G1 X104.831 Y76.073 E.02672
G1 X105.401 Y76.706 E.02672
G1 X105.944 Y77.363 E.02672
G1 X106.46 Y78.041 E.02672
G1 X106.946 Y78.741 E.02672
G1 X107.403 Y79.461 E.02672
G1 X107.829 Y80.199 E.02672
G1 X108.223 Y80.954 E.02672
G1 X108.586 Y81.725 E.02672
G1 X108.921 Y82.522 E.02709
G1 X109.214 Y83.309 E.02634
G1 X109.477 Y84.12 E.02672
G1 X109.706 Y84.94 E.02672
G1 X109.901 Y85.77 E.02672
G1 X110.06 Y86.607 E.02672
G1 X110.185 Y87.45 E.02672
G1 X110.274 Y88.298 E.02673
G1 X110.328 Y89.16 E.02709
G1 X110.345 Y90 E.02634
G1 X110.327 Y90.852 E.02672
G1 X110.274 Y91.702 E.02672
G1 X110.185 Y92.55 E.02672
G1 X110.06 Y93.393 E.02672
G1 X109.901 Y94.23 E.02672
G1 X109.706 Y95.06 E.02672
G1 X109.477 Y95.88 E.02672
G1 X109.214 Y96.691 E.02672
G1 X108.917 Y97.49 E.02672
G1 X108.586 Y98.275 E.02672
G1 X108.223 Y99.046 E.02672
G1 X107.829 Y99.802 E.02672
G1 X107.396 Y100.549 E.02709
G1 X106.946 Y101.259 E.02634
G1 X106.46 Y101.959 E.02672
G1 X105.944 Y102.637 E.02672
G1 X105.401 Y103.294 E.02672
G1 X104.831 Y103.927 E.02672
G1 X104.235 Y104.536 E.02672
G1 X103.614 Y105.119 E.02672
G1 X102.978 Y105.668 E.02634
G1 X102.301 Y106.206 E.02709
G1 X101.611 Y106.706 E.02672
G1 X100.902 Y107.178 E.02672
G1 X100.173 Y107.619 E.02672
G1 X99.426 Y108.03 E.02672
G1 X98.663 Y108.409 E.02672
G1 X97.895 Y108.751 E.02634
G1 X97.092 Y109.069 E.02709
G1 X96.287 Y109.349 E.02672
G1 X95.471 Y109.596 E.02672
G1 X94.646 Y109.808 E.02672
G1 X93.812 Y109.985 E.02672
G1 X92.972 Y110.127 E.02672
G1 X92.138 Y110.232 E.02634
G1 X91.278 Y110.305 E.02709
G1 X90.426 Y110.341 E.02672
G1 X89.574 Y110.341 E.02672
G1 X88.723 Y110.305 E.02672
G1 X87.873 Y110.234 E.02672
G1 X87.028 Y110.127 E.02672
G1 X86.188 Y109.985 E.02672
G1 X85.354 Y109.808 E.02672
G1 X84.529 Y109.596 E.02672
G1 X83.724 Y109.353 E.02634
G1 X82.908 Y109.069 E.02709
G1 X82.116 Y108.756 E.02672
G1 X81.337 Y108.409 E.02672
G1 X80.574 Y108.03 E.02672
G1 X79.827 Y107.619 E.02672
G1 X79.098 Y107.178 E.02672
G1 X78.389 Y106.706 E.02672
G1 X77.699 Y106.206 E.02672
G1 X77.041 Y105.684 E.02634
G1 X76.386 Y105.12 E.02709
G1 X75.765 Y104.536 E.02672
G1 X75.169 Y103.927 E.02672
G1 X74.599 Y103.294 E.02672
G1 X74.056 Y102.637 E.02672
G1 X73.54 Y101.959 E.02672
G1 X73.054 Y101.259 E.02672
G1 X72.597 Y100.539 E.02672
G1 X72.171 Y99.801 E.02672
G1 X71.777 Y99.046 E.02672
G1 X71.414 Y98.275 E.02672
G1 X71.083 Y97.49 E.02672
G1 X70.786 Y96.691 E.02672
G1 X70.523 Y95.88 E.02672
G1 X70.294 Y95.06 E.02672
G1 X70.099 Y94.23 E.02672
G1 X69.94 Y93.393 E.02672
G1 X69.815 Y92.55 E.02672
G1 X69.726 Y91.702 E.02672
G1 X69.672 Y90.84 E.02709
G1 X69.655 Y90 E.02634
G1 X69.673 Y89.148 E.02672
G1 X69.726 Y88.298 E.02672
G1 X69.815 Y87.45 E.02672
G1 X69.94 Y86.607 E.02672
G1 X70.099 Y85.77 E.02672
G1 X70.294 Y84.94 E.02672
G1 X70.523 Y84.12 E.02672
G1 X70.786 Y83.309 E.02672
G1 X71.083 Y82.51 E.02672
G1 X71.414 Y81.725 E.02672
G1 X71.777 Y80.954 E.02672
G1 X72.171 Y80.198 E.02672
G1 X72.604 Y79.451 E.02709
G1 X73.054 Y78.741 E.02634
G1 X73.54 Y78.041 E.02672
G1 X74.056 Y77.363 E.02672
G1 X74.599 Y76.706 E.02672
G1 X75.169 Y76.073 E.02672
G1 X75.718 Y75.512 E.02459
M204 P1000
G1 X76.029 Y75.733 F9000
M204 P800
;TYPE:External perimeter
G1 F1200
G1 X76.639 Y75.161 E.02622
G1 X77.263 Y74.622 E.02585
G1 X77.927 Y74.095 E.02659
G1 X78.604 Y73.603 E.02622
G1 X79.301 Y73.14 E.02622
G1 X80.016 Y72.707 E.02622
G1 X80.749 Y72.304 E.02622
G1 X81.498 Y71.932 E.02622
G1 X82.251 Y71.597 E.02585
G1 X83.04 Y71.284 E.02659
G1 X83.83 Y71.009 E.02622
G1 X84.63 Y70.768 E.02622
G1 X85.44 Y70.559 E.02622
G1 X86.258 Y70.386 E.02622
G1 X87.083 Y70.246 E.02622
G1 X87.901 Y70.143 E.02585
G1 X88.746 Y70.071 E.02659
G1 X89.582 Y70.036 E.02623
G1 X90.418 Y70.036 E.02622
G1 X91.254 Y70.071 E.02622
G1 X92.087 Y70.141 E.02622
G1 X92.917 Y70.246 E.02622
G1 X93.742 Y70.386 E.02622
G1 X94.56 Y70.559 E.02622
G1 X95.37 Y70.768 E.02622
G1 X96.17 Y71.009 E.02622
G1 X96.96 Y71.284 E.02622
G1 X97.738 Y71.592 E.02622
G1 X98.502 Y71.932 E.02622
G1 X99.251 Y72.304 E.02622
G1 X99.984 Y72.707 E.02622
G1 X100.699 Y73.14 E.02622
G1 X101.396 Y73.603 E.02622
G1 X102.073 Y74.095 E.02622
G1 X102.719 Y74.607 E.02585
G1 X103.361 Y75.161 E.02659
G1 X103.971 Y75.733 E.02623
G1 X104.556 Y76.331 E.02622
G1 X105.116 Y76.952 E.02622
G1 X105.649 Y77.597 E.02622
G1 X106.155 Y78.263 E.02622
G1 X106.632 Y78.95 E.02622
G1 X107.08 Y79.656 E.02622
G1 X107.498 Y80.38 E.02622
G1 X107.886 Y81.121 E.02622
G1 X108.242 Y81.878 E.02623
G1 X108.57 Y82.66 E.02659
G1 X108.857 Y83.433 E.02585
G1 X109.116 Y84.229 E.02622
G1 X109.341 Y85.034 E.02622
G1 X109.532 Y85.848 E.02622
G1 X109.688 Y86.67 E.02622
G1 X109.811 Y87.497 E.02622
G1 X109.898 Y88.329 E.02623
G1 X109.951 Y89.176 E.02659
G1 X109.968 Y90 E.02585
G1 X109.951 Y90.836 E.02622
G1 X109.898 Y91.671 E.02622
G1 X109.811 Y92.503 E.02622
G1 X109.688 Y93.33 E.02622
G1 X109.532 Y94.152 E.02622
G1 X109.341 Y94.966 E.02622
G1 X109.116 Y95.771 E.02622
G1 X108.857 Y96.567 E.02622
G1 X108.566 Y97.351 E.02622
G1 X108.242 Y98.122 E.02622
G1 X107.886 Y98.879 E.02622
G1 X107.498 Y99.62 E.02622
G1 X107.074 Y100.354 E.02659
G1 X106.632 Y101.05 E.02585
G1 X106.155 Y101.737 E.02622
G1 X105.649 Y102.403 E.02622
G1 X105.116 Y103.048 E.02622
G1 X104.556 Y103.669 E.02622
G1 X103.971 Y104.267 E.02622
G1 X103.361 Y104.839 E.02622
G1 X102.737 Y105.378 E.02585
G1 X102.073 Y105.905 E.02659
G1 X101.396 Y106.397 E.02622
G1 X100.699 Y106.86 E.02622
G1 X99.984 Y107.293 E.02622
G1 X99.251 Y107.696 E.02622
G1 X98.502 Y108.068 E.02622
G1 X97.749 Y108.403 E.02585
G1 X96.96 Y108.716 E.02659
G1 X96.17 Y108.991 E.02622
G1 X95.37 Y109.232 E.02622
G1 X94.56 Y109.441 E.02622
G1 X93.742 Y109.614 E.02622
G1 X92.917 Y109.754 E.02622
G1 X92.099 Y109.857 E.02585
G1 X91.254 Y109.929 E.02659
G1 X90.418 Y109.964 E.02623
G1 X89.582 Y109.964 E.02622
G1 X88.746 Y109.929 E.02622
G1 X87.913 Y109.859 E.02622
G1 X87.083 Y109.754 E.02622
G1 X86.258 Y109.614 E.02622
G1 X85.44 Y109.441 E.02622
G1 X84.63 Y109.232 E.02622
G1 X83.841 Y108.994 E.02585
G1 X83.04 Y108.716 E.02659
G1 X82.262 Y108.408 E.02623
G1 X81.498 Y108.068 E.02622
G1 X80.749 Y107.696 E.02622
G1 X80.016 Y107.293 E.02622
G1 X79.301 Y106.86 E.02622
G1 X78.604 Y106.397 E.02622
G1 X77.927 Y105.905 E.02622
G1 X77.281 Y105.393 E.02585
G1 X76.639 Y104.839 E.02659
G1 X76.029 Y104.267 E.02623
G1 X75.444 Y103.669 E.02622
G1 X74.884 Y103.048 E.02622
G1 X74.351 Y102.403 E.02622
G1 X73.845 Y101.737 E.02622
G1 X73.368 Y101.05 E.02622
G1 X72.92 Y100.344 E.02622
G1 X72.502 Y99.62 E.02622
G1 X72.114 Y98.879 E.02622
G1 X71.758 Y98.122 E.02622
G1 X71.434 Y97.351 E.02622
G1 X71.143 Y96.567 E.02622
G1 X70.884 Y95.771 E.02622
G1 X70.659 Y94.966 E.02622
G1 X70.468 Y94.152 E.02622
G1 X70.312 Y93.33 E.02622
G1 X70.189 Y92.503 E.02622
G1 X70.102 Y91.671 E.02623
G1 X70.049 Y90.824 E.02659
G1 X70.032 Y90 E.02585
G1 X70.049 Y89.164 E.02622
G1 X70.102 Y88.329 E.02622
G1 X70.189 Y87.497 E.02622
G1 X70.312 Y86.67 E.02622
G1 X70.468 Y85.848 E.02622
G1 X70.659 Y85.034 E.02622
G1 X70.884 Y84.229 E.02622
G1 X71.143 Y83.433 E.02622
G1 X71.434 Y82.649 E.02622
G1 X71.758 Y81.878 E.02622
G1 X72.114 Y81.121 E.02622
G1 X72.502 Y80.38 E.02622
G1 X72.926 Y79.646 E.02659
G1 X73.368 Y78.95 E.02585
G1 X73.845 Y78.263 E.02622
G1 X74.351 Y77.597 E.02622
G1 X74.884 Y76.952 E.02622
G1 X75.444 Y76.331 E.02622
G1 X75.987 Y75.776 E.02434
M204 P1000
G1 X75.93 Y75.346 F9000
G1 E-2.24 F2700
;WIPE_START
G1 F7200
G1 X76.639 Y75.161 E-.31931
G1 X77.263 Y74.622 E-.29374
G1 X77.92 Y74.1 E-.29895
;WIPE_END
G1 E-.048 F2700
G1 Z.4 F720
G1 X116.636 Y88.846 F9000
G1 Z.2 F720
G1 E3.2 F1500
M204 P800
;TYPE:Perimeter
G1 F1200
G1 X116.75 Y88.517 E.01093
G1 X116.96 Y88.072 E.01542
G1 X117.143 Y87.768 E.01112
G1 X117.553 Y87.252 E.02068
G1 X118.043 Y86.81 E.02068
G1 X118.335 Y86.608 E.01112
G1 X118.765 Y86.371 E.01542
G1 X119.087 Y86.236 E.01093
G1 X119.563 Y86.092 E.0156
G1 X120.045 Y86.01 E.01533
G1 X120.395 Y85.987 E.011
G1 X120.738 Y85.995 E.01074
G1 X121.229 Y86.056 E.01553
G1 X121.867 Y86.233 E.02076
G1 X122.194 Y86.371 E.01113
G1 X122.625 Y86.608 E.01542
G1 X122.912 Y86.807 E.01093
G1 X123.284 Y87.128 E.01544
G1 X123.528 Y87.389 E.0112
G1 X123.828 Y87.784 E.01554
G1 X124.148 Y88.37 E.02094
G1 X124.321 Y88.834 E.01553
G1 X124.406 Y89.166 E.01072
G1 X124.463 Y89.503 E.01073
G1 X124.494 Y90 E.01561
G1 X124.463 Y90.497 E.01561
G1 X124.404 Y90.847 E.01112
G1 X124.213 Y91.478 E.02069
G1 X123.912 Y92.082 E.02115
G1 X123.629 Y92.488 E.01553
G1 X123.398 Y92.757 E.01111
G1 X122.917 Y93.19 E.02029
G1 X122.625 Y93.392 E.01112
G1 X122.195 Y93.629 E.01542
G1 X121.873 Y93.764 E.01093
G1 X121.397 Y93.908 E.0156
G1 X120.915 Y93.99 E.01533
G1 X120.565 Y94.013 E.011
G1 X120.222 Y94.005 E.01075
G1 X119.722 Y93.942 E.01581
G1 X119.092 Y93.767 E.02049
G1 X118.765 Y93.629 E.01112
G1 X118.329 Y93.389 E.0156
G1 X117.934 Y93.102 E.01533
G1 X117.672 Y92.868 E.011
G1 X117.438 Y92.618 E.01075
G1 X117.133 Y92.216 E.01581
G1 X116.812 Y91.633 E.02087
G1 X116.595 Y91.01 E.02068
G1 X116.521 Y90.663 E.01112
G1 X116.47 Y90.174 E.01542
G1 X116.47 Y89.826 E.01092
G1 X116.522 Y89.331 E.01561
G1 X116.622 Y88.904 E.01373
M204 P1000
G1 X116.998 Y88.951 F9000
M204 P800
;TYPE:External perimeter
G1 F1200
G1 X117.1 Y88.659 E.00969
G1 X117.293 Y88.25 E.01418
G1 X117.454 Y87.984 E.00976
G1 X117.829 Y87.511 E.01894
G1 X118.278 Y87.106 E.01894
G1 X118.534 Y86.929 E.00976
G1 X118.93 Y86.711 E.01418
G1 X119.215 Y86.591 E.00969
G1 X119.65 Y86.46 E.01425
G1 X120.089 Y86.385 E.01398
G1 X120.404 Y86.365 E.00988
G1 X120.71 Y86.371 E.00962
G1 X121.155 Y86.427 E.01405
G1 X121.743 Y86.59 E.01914
G1 X122.03 Y86.711 E.00976
G1 X122.426 Y86.929 E.01418
G1 X122.68 Y87.105 E.00969
G1 X123.023 Y87.401 E.01419
G1 X123.24 Y87.632 E.00995
G1 X123.51 Y87.99 E.01405
G1 X123.804 Y88.527 E.01921
G1 X123.96 Y88.947 E.01405
G1 X124.037 Y89.244 E.00961
G1 X124.088 Y89.546 E.00962
G1 X124.116 Y90 E.01425
G1 X124.088 Y90.454 E.01425
G1 X124.036 Y90.76 E.00976
G1 X123.861 Y91.339 E.01895
G1 X123.587 Y91.889 E.01928
G1 X123.331 Y92.257 E.01405
G1 X123.128 Y92.492 E.00975
G1 X122.682 Y92.894 E.0188
G1 X122.426 Y93.071 E.00976
G1 X122.03 Y93.289 E.01418
G1 X121.745 Y93.409 E.00969
G1 X121.31 Y93.54 E.01425
G1 X120.871 Y93.615 E.01398
G1 X120.556 Y93.635 E.00988
G1 X120.249 Y93.629 E.00962
G1 X119.796 Y93.572 E.01432
G1 X119.217 Y93.41 E.01887
G1 X118.93 Y93.289 E.00976
G1 X118.532 Y93.07 E.01425
G1 X118.171 Y92.808 E.01398
G1 X117.936 Y92.598 E.00988
G1 X117.726 Y92.374 E.00962
G1 X117.45 Y92.01 E.01432
G1 X117.158 Y91.479 E.01901
G1 X116.959 Y90.909 E.01894
G1 X116.894 Y90.604 E.00976
G1 X116.847 Y90.154 E.01418
G1 X116.847 Y89.846 E.00968
G1 X116.895 Y89.394 E.01425
G1 X116.985 Y89.01 E.01237
M204 P1000
G1 X116.784 Y88.729 F9000
G1 E-2.24 F2700
;WIPE_START
G1 F7200
